X:17
T:Palm Sunday Psalm
M:3/4
L:1/4
K:Bm
%%score (C A) | (T B)
V:C clef=treble
V:A clef=treble
V:T clef=bass
V:B clef=bass
[V:C] F | (D/C/ B,) (F/B/) | (A F2) | D3/2 D/ E/ E/ | F/ F/ F ||
w: My | God, - - my | God, | Why have you for- | sak-en me? ||
[V:A] C | F, F, D | D D2 | B,3 | C C ||
[V:T] ^A, | D, D, F, | F, A,2 | (D,2 C,) | B, ^A, ||
[V:B] F,, | B,, B,, B,, | D, D,2 | G,,3 | F,,2 ||

%
